material/.icons/material/sony-playstation.svg

<svg xmlns="http://www.w3.org/2000/svg" viewBox="0 0 24 24"><path d="M9.5 4.27c1.38.26 3.4.87 4.5 1.23 2.75.95 3.69 2.13 3.69 4.79 0 2.6-1.6 3.58-3.64 2.6V8.05c0-.55-.1-1.08-.64-1.23-.41-.13-.65.25-.65.81v12.1L9.5 18.69V4.27m3.87 13.35l5.25-1.87c.6-.21.69-.51.21-.67-.49-.16-1.36-.11-1.96.1l-3.5 1.23v-1.96l.21-.07s1.01-.38 2.42-.51c1.43-.16 3.17.02 4.53.53 1.54.49 1.72 1.21 1.33 1.7-.4.5-1.36.85-1.36.85l-7.13 2.55v-1.88m-9.87-.2C1.93 17 1.66 16.05 2.38 15.5c.67-.5 1.8-.85 1.8-.85L8.86 13v1.88L5.5 16.09c-.6.21-.69.51-.21.67.48.16 1.36.12 1.95-.1l1.62-.58v1.69l-.32.06c-1.62.26-3.34.17-5.04-.41z"/></svg>

<?xml version="1.0" encoding="UTF-8"?><!DOCTYPE svg PUBLIC "-//W3C//DTD SVG 1.1//EN" "http://www.w3.org/Graphics/SVG/1.1/DTD/svg11.dtd"><svg xmlns="http://www.w3.org/2000/svg" xmlns:xlink="http://www.w3.org/1999/xlink" version="1.1" id="mdi-sony-playstation" width="24" height="24" viewBox="0 0 24 24"><path d="M9.5,4.27C10.88,4.53 12.9,5.14 14,5.5C16.75,6.45 17.69,7.63 17.69,10.29C17.69,12.89 16.09,13.87 14.05,12.89V8.05C14.05,7.5 13.95,6.97 13.41,6.82C13,6.69 12.76,7.07 12.76,7.63V19.73L9.5,18.69V4.27M13.37,17.62L18.62,15.75C19.22,15.54 19.31,15.24 18.83,15.08C18.34,14.92 17.47,14.97 16.87,15.18L13.37,16.41V14.45L13.58,14.38C13.58,14.38 14.59,14 16,13.87C17.43,13.71 19.17,13.89 20.53,14.4C22.07,14.89 22.25,15.61 21.86,16.1C21.46,16.6 20.5,16.95 20.5,16.95L13.37,19.5V17.62M3.5,17.42C1.93,17 1.66,16.05 2.38,15.5C3.05,15 4.18,14.65 4.18,14.65L8.86,13V14.88L5.5,16.09C4.9,16.3 4.81,16.6 5.29,16.76C5.77,16.92 6.65,16.88 7.24,16.66L8.86,16.08V17.77L8.54,17.83C6.92,18.09 5.2,18 3.5,17.42Z" /></svg>
